;Sliced by ideaMaker 4.2.1.5320, 2023-06-10 16:46:26 UTC+0800
;Dimension: 300.000 300.000 300.000 0.400 0.400
;Plate Shape: 0
;Origin Center: 0
;Extruder Offset #1: 0.000 0.000
;Filament Diameter #1: 1.750
;Filament Diameter #2: 1.750
;Filament Compensation #1: 90.00
;Filament Compensation #2: 90.00
;Filament Density #1: 1240.00
;Filament Density #2: 1240.00
;Bounding Box: 71.280 228.720 71.280 228.720 0.000 3.050
;Model Gap: 0.000
M221 T0 S90.00
M140 S55.00
M104 T0 S225.00
M109 T0 S225.00
T0
M190 S55.00
M572 D0 S0.05
M572 D1 S0.05
G21
G90
M82
M107
G28
G1 Z0 F500
G92 E0
G1 Z0.2 F400
G1 X60 Y-2 F800
G1 X140 Y-2 E12 F200
G1 Z5 E15 F200
G92 E0
G1 F9000.0
M117 Printing...
M1001
;TOTAL_NUM: 1
;PRINTING_TIME: 0
;REMAINING_TIME: 16099
;LAYER:0
;Z:0.300
;HEIGHT:0.300
M106 S0
M106 P2 S0
;PRINTING: NON-OBJECT
;PRINTING_ID: -1
G1 F2400 E-0.5000
M204 T1500.00
G0 F9000 X72.502 Y72.245
G0 F300 Z0.300
M204 P1000.00
;TYPE:SKIRT
;WIDTH:0.480
G1 F1500 E0.0000
G1 F900 X72.969 Y71.885 E0.0353
G1 X73.426 Y71.631 E0.0666
G1 X73.849 Y71.464 E0.0938
G1 X74.428 Y71.326 E0.1295
G1 X75.000 Y71.280 E0.1638
G1 X225.034 Y71.281 E9.1461
G1 X225.554 Y71.323 E9.1773
G1 X225.999 Y71.418 E9.2046
G1 X226.553 Y71.621 E9.2399
G1 X226.954 Y71.836 E9.2671
G1 X227.378 Y72.141 E9.2984
G1 X227.755 Y72.502 E9.3296
G1 X228.115 Y72.969 E9.3649
G1 X228.369 Y73.426 E9.3963
G1 X228.536 Y73.849 E9.4235
G1 X228.674 Y74.428 E9.4591
G1 X228.720 Y75.000 E9.4935
G1 X228.719 Y225.034 E18.4757
G1 X228.677 Y225.554 E18.5070
G1 X228.582 Y225.999 E18.5342
G1 X228.379 Y226.553 E18.5695
G1 X228.164 Y226.954 E18.5968
G1 X227.859 Y227.378 E18.6280
G1 X227.498 Y227.755 E18.6593
G1 X227.031 Y228.115 E18.6946
G1 X226.574 Y228.369 E18.7259
G1 X226.151 Y228.536 E18.7531
G1 X225.572 Y228.674 E18.7888
G1 X225.000 Y228.720 E18.8231
G1 X75.000 Y228.720 E27.8034
G1 X74.446 Y228.677 E27.8366
G1 X73.935 Y228.564 E27.8680
G1 X73.508 Y228.407 E27.8952
G1 X72.989 Y228.128 E27.9305
G1 X72.571 Y227.816 E27.9617
G1 X72.245 Y227.498 E27.9890
G1 X71.885 Y227.031 E28.0243
G1 X71.631 Y226.574 E28.0556
G1 X71.464 Y226.151 E28.0828
G1 X71.326 Y225.572 E28.1184
G1 X71.280 Y225.000 E28.1528
G1 X71.280 Y75.000 E37.1330
G1 X71.323 Y74.446 E37.1663
G1 X71.436 Y73.935 E37.1976
G1 X71.593 Y73.508 E37.2248
G1 X71.872 Y72.989 E37.2601
G1 X72.184 Y72.571 E37.2914
G1 X72.502 Y72.245 E37.3186
G0 F9000 X72.846 Y72.580
G1 F900 X73.206 Y72.302 E37.3458
G1 X73.602 Y72.077 E37.3731
G1 X74.025 Y71.910 E37.4003
G1 X74.468 Y71.804 E37.4276
G1 X75.000 Y71.760 E37.4596
G1 X225.000 Y71.760 E46.4398
G1 X225.454 Y71.792 E46.4671
G1 X225.899 Y71.887 E46.4943
G1 X226.326 Y72.044 E46.5215
G1 X226.727 Y72.259 E46.5488
G1 X227.094 Y72.528 E46.5760
G1 X227.420 Y72.846 E46.6033
G1 X227.698 Y73.206 E46.6305
G1 X227.923 Y73.602 E46.6578
G1 X228.090 Y74.025 E46.6850
G1 X228.196 Y74.468 E46.7123
G1 X228.240 Y75.000 E46.7442
G1 X228.240 Y225.000 E55.7245
G1 X228.208 Y225.454 E55.7517
G1 X228.113 Y225.899 E55.7790
G1 X227.956 Y226.326 E55.8062
G1 X227.741 Y226.727 E55.8334
G1 X227.472 Y227.094 E55.8607
G1 X227.154 Y227.420 E55.8879
G1 X226.794 Y227.698 E55.9152
G1 X226.398 Y227.923 E55.9424
G1 X225.975 Y228.090 E55.9697
G1 X225.532 Y228.196 E55.9969
G1 X225.000 Y228.240 E56.0289
G1 X75.000 Y228.240 E65.0091
G1 X74.546 Y228.208 E65.0364
G1 X74.101 Y228.113 E65.0636
G1 X73.674 Y227.956 E65.0909
G1 X73.273 Y227.741 E65.1181
G1 X72.906 Y227.472 E65.1453
G1 X72.580 Y227.154 E65.1726
G1 X72.302 Y226.794 E65.1998
G1 X72.077 Y226.398 E65.2271
G1 X71.910 Y225.975 E65.2543
G1 X71.804 Y225.532 E65.2816
G1 X71.760 Y225.000 E65.3136
G1 X71.760 Y75.000 E74.2938
G1 X71.792 Y74.546 E74.3210
G1 X71.887 Y74.101 E74.3483
G1 X72.044 Y73.674 E74.3755
G1 X72.259 Y73.273 E74.4028
G1 X72.528 Y72.906 E74.4300
G1 X72.846 Y72.580 E74.4573
;PRINTING: ??????????????? v1.stl
;PRINTING_ID: 0
G1 F2400 E73.9573
G0 F9000 X75.720 Y75.720
;TYPE:WALL-INNER
;WIDTH:0.480
G1 F1500 E74.4573
G1 F900 X77.674 Y75.720 E74.5743
G1 X77.724 Y75.892 E74.5850
G1 X76.988 Y76.359 E74.6372
G1 X76.177 Y77.223 E74.7081
G1 X75.899 Y77.728 E74.7426
G1 X75.720 Y77.682 E74.7537
G1 X75.720 Y75.720 E74.8711
G1 F2400 E74.3711
G0 F9000 X75.340 Y75.250
G0 X75.240 Y75.240
M204 P500.00
;TYPE:WALL-OUTER
;WIDTH:0.480
G1 F1500 E74.8711
G1 F900 X224.760 Y75.240 E83.8226
G1 X224.760 Y224.760 E92.7741
G1 X75.240 Y224.760 E101.7256
G1 X75.240 Y75.240 E110.6771
G0 F3600 X75.440 Y75.240
G1 F2400 E110.1771
G0 F9000 X75.440 Y75.340
G0 X75.720 Y82.318
M204 P1000.00
;TYPE:WALL-INNER
;WIDTH:0.480
G1 F1500 E110.6771
G1 F900 X75.899 Y82.272 E110.6882
G1 X76.177 Y82.777 E110.7227
G1 X76.988 Y83.641 E110.7937
G1 X77.988 Y84.276 E110.8646
G1 X79.114 Y84.642 E110.9355
G1 X80.296 Y84.716 E111.0064
G1 X81.461 Y84.494 E111.0774
G1 X82.532 Y83.989 E111.1483
G1 X83.445 Y83.235 E111.2191
G1 X84.141 Y82.277 E111.2900
G1 X84.577 Y81.175 E111.3610
G1 X84.726 Y80.000 E111.4319
G1 X84.577 Y78.825 E111.5028
G1 X84.141 Y77.723 E111.5738
G1 X83.445 Y76.765 E111.6446
G1 X82.532 Y76.011 E111.7155
G1 X82.310 Y75.906 E111.7302
G1 X82.352 Y75.720 E111.7417
G1 X217.674 Y75.720 E119.8431
G1 X217.724 Y75.892 E119.8539
G1 X216.988 Y76.359 E119.9061
G1 X216.177 Y77.223 E119.9770
G1 X215.606 Y78.261 E120.0479
G1 X215.312 Y79.408 E120.1188
G1 X215.312 Y80.592 E120.1897
G1 X215.606 Y81.739 E120.2606
G1 X216.177 Y82.777 E120.3315
G1 X216.988 Y83.641 E120.4025
G1 X217.988 Y84.276 E120.4734
G1 X219.114 Y84.642 E120.5443
G1 X220.296 Y84.716 E120.6152
G1 X221.461 Y84.494 E120.6862
G1 X222.532 Y83.989 E120.7570
G1 X223.445 Y83.235 E120.8279
G1 X224.116 Y82.312 E120.8963
G1 X224.280 Y82.365 E120.9066
G1 X224.280 Y217.635 E129.0050
G1 X224.116 Y217.688 E129.0153
G1 X223.445 Y216.765 E129.0836
G1 X222.532 Y216.011 E129.1545
G1 X221.461 Y215.506 E129.2254
G1 X220.296 Y215.284 E129.2964
G1 X219.114 Y215.358 E129.3673
G1 X217.988 Y215.724 E129.4382
G1 X216.988 Y216.359 E129.5091
G1 X216.177 Y217.223 E129.5800
G1 X215.606 Y218.261 E129.6509
G1 X215.312 Y219.408 E129.7218
G1 X215.312 Y220.591 E129.7927
G1 X215.606 Y221.740 E129.8637
G1 X216.177 Y222.777 E129.9345
G1 X216.988 Y223.641 E130.0055
G1 X217.724 Y224.108 E130.0577
G1 X217.674 Y224.280 E130.0684
G1 X82.352 Y224.280 E138.1699
G1 X82.310 Y224.094 E138.1813
G1 X82.532 Y223.989 E138.1960
G1 X83.445 Y223.235 E138.2669
G1 X84.141 Y222.277 E138.3378
G1 X84.577 Y221.175 E138.4087
G1 X84.726 Y220.000 E138.4796
G1 X84.577 Y218.825 E138.5505
G1 X84.141 Y217.723 E138.6215
G1 X83.445 Y216.765 E138.6924
G1 X82.532 Y216.011 E138.7633
G1 X81.461 Y215.506 E138.8342
G1 X80.296 Y215.284 E138.9052
G1 X79.114 Y215.358 E138.9761
G1 X77.988 Y215.724 E139.0470
G1 X76.988 Y216.359 E139.1179
G1 X76.177 Y217.223 E139.1888
G1 X75.899 Y217.728 E139.2233
G1 X75.720 Y217.682 E139.2344
G1 X75.720 Y82.318 E147.3384
G1 F2400 E146.8384
G0 F9000 X123.337 Y194.305
G1 F1500 E147.3384
G1 F900 X123.337 Y205.745 E148.0233
G1 X174.777 Y205.745 E151.1029
G1 X174.777 Y194.305 E151.7878
G1 X123.337 Y194.305 E154.8674
G1 F2400 E154.3674
G0 F9000 X123.827 Y194.685
G0 X123.817 Y194.785
M204 P500.00
;TYPE:WALL-OUTER
;WIDTH:0.480
G1 F1500 E154.8674
G1 F900 X123.817 Y205.265 E155.4948
G1 X174.297 Y205.265 E158.5170
G1 X174.297 Y194.785 E159.1444
G1 X123.817 Y194.785 E162.1666
G0 F3600 X123.817 Y194.985
G1 F2400 E161.6666
G0 F9000 X123.717 Y194.985
G0 X77.169 Y216.578
G0 X75.870 Y218.366
G0 X75.792 Y218.986
G0 X75.720 Y222.318
M204 P1000.00
;TYPE:WALL-INNER
;WIDTH:0.480
G1 F1500 E162.1666
G1 F900 X75.899 Y222.272 E162.1776
G1 X76.177 Y222.777 E162.2121
G1 X76.988 Y223.641 E162.2831
G1 X77.724 Y224.108 E162.3353
G1 X77.674 Y224.280 E162.3460
G1 X75.720 Y224.280 E162.4630
G1 X75.720 Y222.318 E162.5804
G1 F2400 E162.0804
G0 F9000 X78.109 Y224.019
G0 X80.278 Y224.432
G0 X220.278 Y224.432
G0 X222.310 Y224.094
G1 F1500 E162.5804
G1 F900 X222.532 Y223.989 E162.5951
G1 X223.445 Y223.235 E162.6660
G1 X224.116 Y222.312 E162.7343
G1 X224.280 Y222.365 E162.7447
G1 X224.280 Y224.280 E162.8593
G1 X222.352 Y224.280 E162.9747
G1 X222.310 Y224.094 E162.9862
G1 F2400 E162.4862
G0 F9000 X223.892 Y222.140
G0 X224.442 Y220.000
G0 X224.301 Y78.896
G0 X222.352 Y75.720
G1 F1500 E162.9862
G1 F900 X224.280 Y75.720 E163.1016
G1 X224.280 Y77.635 E163.2162
G1 X224.116 Y77.688 E163.2265
G1 X223.445 Y76.765 E163.2949
G1 X222.532 Y76.011 E163.3658
G1 X222.310 Y75.906 E163.3805
G1 X222.352 Y75.720 E163.3919
G1 F2400 E162.8919
G0 F9000 X219.168 Y75.637
G0 X217.169 Y76.578
G0 X215.958 Y78.424
G0 X216.056 Y78.439
M204 P500.00
;TYPE:WALL-OUTER
;WIDTH:0.480
G1 F1500 E163.3919
G1 F900 X215.792 Y79.469 E163.4555
G1 X215.792 Y80.531 E163.5191
G1 X216.056 Y81.561 E163.5828
G1 X216.568 Y82.493 E163.6464
G1 X217.296 Y83.268 E163.7101
G1 X218.194 Y83.838 E163.7738
G1 X219.205 Y84.167 E163.8374
G1 X220.266 Y84.233 E163.9011
G1 X221.311 Y84.034 E163.9647
G1 X222.273 Y83.581 E164.0284
G1 X223.092 Y82.904 E164.0920
G1 X223.717 Y82.044 E164.1557
G1 X224.108 Y81.055 E164.2193
G1 X224.242 Y80.000 E164.2830
G1 X224.108 Y78.945 E164.3467
G1 X223.717 Y77.956 E164.4103
G1 X223.092 Y77.096 E164.4740
G1 X222.273 Y76.419 E164.5376
G1 X221.311 Y75.966 E164.6013
G1 X220.266 Y75.767 E164.6649
G1 X219.205 Y75.833 E164.7286
G1 X218.194 Y76.162 E164.7922
G1 X217.296 Y76.732 E164.8559
G1 X216.568 Y77.507 E164.9196
G1 X216.056 Y78.439 E164.9832
G0 F3600 X216.007 Y78.632
G1 F2400 E164.4832
G0 F9000 X215.911 Y78.607
G0 X79.168 Y75.637
G0 X77.218 Y76.671
G0 X77.296 Y76.732
G1 F1500 E164.9832
G1 F900 X76.568 Y77.507 E165.0469
G1 X76.056 Y78.439 E165.1106
G1 X75.792 Y79.469 E165.1742
G1 X75.792 Y80.531 E165.2378
G1 X76.056 Y81.561 E165.3015
G1 X76.568 Y82.493 E165.3651
G1 X77.296 Y83.268 E165.4288
G1 X78.194 Y83.838 E165.4925
G1 X79.205 Y84.167 E165.5561
G1 X80.266 Y84.233 E165.6197
G1 X81.311 Y84.034 E165.6834
G1 X82.273 Y83.581 E165.7471
G1 X83.092 Y82.904 E165.8107
G1 X83.717 Y82.044 E165.8744
G1 X84.108 Y81.055 E165.9380
G1 X84.242 Y80.000 E166.0017
G1 X84.108 Y78.945 E166.0654
G1 X83.717 Y77.956 E166.1290
G1 X83.092 Y77.096 E166.1927
G1 X82.273 Y76.419 E166.2563
G1 X81.311 Y75.966 E166.3200
G1 X80.266 Y75.767 E166.3836
G1 X79.205 Y75.833 E166.4473
G1 X78.194 Y76.162 E166.5109
G1 X77.296 Y76.732 E166.5746
G0 F3600 X77.160 Y76.877
G1 F2400 E166.0746
G0 F9000 X77.089 Y76.808
G0 X75.870 Y78.366
G0 X75.714 Y79.606
G0 X78.133 Y216.083
G0 X78.194 Y216.162
G1 F1500 E166.5746
G1 F900 X77.296 Y216.732 E166.6383
G1 X76.568 Y217.507 E166.7019
G1 X76.056 Y218.439 E166.7656
G1 X75.792 Y219.469 E166.8293
G1 X75.792 Y220.531 E166.8928
G1 X76.056 Y221.562 E166.9566
G1 X76.568 Y222.493 E167.0202
G1 X77.296 Y223.268 E167.0838
G1 X78.194 Y223.838 E167.1475
G1 X79.205 Y224.167 E167.2112
G1 X80.266 Y224.233 E167.2748
G1 X81.311 Y224.034 E167.3385
G1 X82.273 Y223.581 E167.4021
G1 X83.092 Y222.904 E167.4658
G1 X83.717 Y222.044 E167.5294
G1 X84.108 Y221.055 E167.5931
G1 X84.242 Y220.000 E167.6567
G1 X84.108 Y218.945 E167.7204
G1 X83.717 Y217.956 E167.7841
G1 X83.092 Y217.096 E167.8477
G1 X82.273 Y216.419 E167.9113
G1 X81.311 Y215.966 E167.9750
G1 X80.266 Y215.767 E168.0387
G1 X79.205 Y215.833 E168.1023
G1 X78.194 Y216.162 E168.1660
G0 F3600 X78.026 Y216.269
G1 F2400 E167.6660
G0 F9000 X77.973 Y216.184
G0 X78.940 Y215.742
G0 X217.218 Y216.671
G0 X217.296 Y216.732
G1 F1500 E168.1660
G1 F900 X216.568 Y217.507 E168.2296
G1 X216.056 Y218.439 E168.2933
G1 X215.792 Y219.469 E168.3570
G1 X215.792 Y220.531 E168.4205
G1 X216.056 Y221.562 E168.4843
G1 X216.568 Y222.493 E168.5479
G1 X217.296 Y223.268 E168.6115
G1 X218.194 Y223.838 E168.6752
G1 X219.205 Y224.167 E168.7389
G1 X220.266 Y224.233 E168.8025
G1 X221.311 Y224.034 E168.8662
G1 X222.273 Y223.581 E168.9298
G1 X223.092 Y222.904 E168.9935
G1 X223.717 Y222.044 E169.0571
G1 X224.108 Y221.055 E169.1208
G1 X224.242 Y220.000 E169.1844
G1 X224.108 Y218.945 E169.2481
G1 X223.717 Y217.956 E169.3118
G1 X223.092 Y217.096 E169.3754
G1 X222.273 Y216.419 E169.4390
G1 X221.311 Y215.966 E169.5027
G1 X220.266 Y215.767 E169.5664
G1 X219.205 Y215.833 E169.6300
G1 X218.194 Y216.162 E169.6937
G1 X217.296 Y216.732 E169.7574
G0 F3600 X217.160 Y216.877
G1 F2400 E169.2574
G0 F9000 X217.089 Y216.808
G0 X224.183 Y83.610
M204 P1000.00
;TYPE:SOLID-FILL
;WIDTH:0.400
G1 F1500 E169.7574
G1 F900 X223.701 Y83.128 E169.7914
G0 F9000 X223.402 Y83.395
G1 F900 X224.183 Y84.176 E169.8465
G0 F9000 X224.183 Y84.741
G1 F900 X223.092 Y83.650 E169.9234
G0 F9000 X222.782 Y83.906
G1 F900 X224.183 Y85.307 E170.0223
G0 F9000 X224.183 Y85.873
G1 F900 X222.446 Y84.136 E170.1449
G0 F9000 X222.061 Y84.317
G1 F900 X224.183 Y86.438 E170.2945
G0 F9000 X224.183 Y87.004
G1 F900 X221.677 Y84.498 E170.4713
G0 F9000 X221.245 Y84.632
G1 F900 X224.183 Y87.570 E170.6786
G0 F9000 X224.183 Y88.135
G1 F900 X220.770 Y84.723 E170.9194
G0 F9000 X220.292 Y84.811
G1 F900 X224.183 Y88.701 E171.1939
G0 F9000 X224.183 Y89.267
G1 F900 X219.690 Y84.774 E171.5109
G1 F2400 E171.0109
G0 F9000 X219.083 Y84.733
G1 F1500 E171.5109
G1 F900 X224.183 Y89.832 E171.8707
G0 F9000 X224.183 Y90.398
G1 F900 X218.246 Y84.461 E172.2896
G1 F2400 E171.7896
G0 F9000 X216.946 Y83.727
G1 F1500 E172.2896
G1 F900 X224.183 Y90.964 E172.8002
G0 F9000 X224.183 Y91.530
G1 F900 X208.469 Y75.815 E173.9089
G0 F9000 X209.034 Y75.815
G1 F900 X216.814 Y83.595 E174.4579
G1 F2400 E173.9579
G0 F9000 X215.499 Y81.715
G1 F1500 E174.4579
G1 F900 X209.600 Y75.815 E174.8741
G0 F9000 X210.166 Y75.815
G1 F900 X215.304 Y80.954 E175.2367
G1 F2400 E174.7367
G0 F9000 X215.215 Y80.299
G1 F1500 E175.2367
G1 F900 X210.731 Y75.815 E175.5530
G0 F9000 X211.297 Y75.815
G1 F900 X215.215 Y79.733 E175.8295
G0 F9000 X215.261 Y79.214
G1 F900 X211.863 Y75.815 E176.0692
G0 F9000 X212.429 Y75.815
G1 F900 X215.376 Y78.763 E176.2772
G0 F9000 X215.492 Y78.314
G1 F900 X212.994 Y75.815 E176.4535
G0 F9000 X213.560 Y75.815
G1 F900 X215.676 Y77.932 E176.6028
G0 F9000 X215.877 Y77.567
G1 F900 X214.126 Y75.815 E176.7264
G0 F9000 X214.691 Y75.815
G1 F900 X216.077 Y77.201 E176.8242
G0 F9000 X216.344 Y76.903
G1 F900 X215.257 Y75.815 E176.9009
G0 F9000 X215.823 Y75.815
G1 F900 X216.619 Y76.612 E176.9571
G0 F9000 X216.892 Y76.320
G1 F900 X216.388 Y75.815 E176.9927
G1 F2400 E176.4927
G0 F9000 X207.903 Y75.815
G1 F1500 E176.9927
G1 F900 X224.183 Y92.095 E178.1414
G0 F9000 X224.183 Y92.661
G1 F900 X207.337 Y75.815 E179.3299
G0 F9000 X206.772 Y75.815
G1 F900 X224.183 Y93.227 E180.5584
G0 F9000 X224.183 Y93.792
G1 F900 X206.206 Y75.815 E181.8268
G0 F9000 X205.640 Y75.815
G1 F900 X224.183 Y94.358 E183.1351
G0 F9000 X224.183 Y94.924
G1 F900 X205.075 Y75.815 E184.4833
G0 F9000 X204.509 Y75.815
G1 F900 X224.183 Y95.489 E185.8714
G0 F9000 X224.183 Y96.055
G1 F900 X203.943 Y75.815 E187.2994
G0 F9000 X203.378 Y75.815
G1 F900 X224.183 Y96.621 E188.7674
G0 F9000 X224.183 Y97.186
G1 F900 X202.812 Y75.815 E190.2752
G0 F9000 X202.246 Y75.815
G1 F900 X224.183 Y97.752 E191.8230
G0 F9000 X224.183 Y98.318
G1 F900 X201.680 Y75.815 E193.4107
G0 F9000 X201.115 Y75.815
G1 F900 X224.183 Y98.883 E195.0383
G0 F9000 X224.183 Y99.449
G1 F900 X200.549 Y75.815 E196.7058
G0 F9000 X199.983 Y75.815
G1 F900 X224.183 Y100.015 E198.4132
G0 F9000 X224.183 Y100.580
G1 F900 X199.418 Y75.815 E200.1605
G0 F9000 X198.852 Y75.815
G1 F900 X224.183 Y101.146 E201.9478
G0 F9000 X224.183 Y101.712
G1 F900 X198.286 Y75.815 E203.7749
G0 F9000 X197.721 Y75.815
G1 F900 X224.183 Y102.278 E205.6420
G0 F9000 X224.183 Y102.843
G1 F900 X197.155 Y75.815 E207.5490
G0 F9000 X196.589 Y75.815
G1 F900 X224.183 Y103.409 E209.4959
G0 F9000 X224.183 Y103.975
G1 F900 X196.024 Y75.815 E211.4827
G0 F9000 X195.458 Y75.815
